Adwaita++-Dark/actions/16/distribute-vertical-center.svg

<svg height="16" viewBox="0 0 16 16" width="16" xmlns="http://www.w3.org/2000/svg">
  <path d="m3.0039062 1.0039062v1.5h-2v2h2v1.5h4v-1.5h2v1.5h3.9999998v-1.5h2v-2h-2v-1.5h-3.9999998v1.5h-2v-1.5zm0 8.9999998v1.5h-2v2h2v1.5h4v-1.5h2v1.5h3.9999998v-1.5h2v-2h-2v-1.5h-3.9999998v1.5h-2v-1.5z" fill="#e6ddff"/>
</svg>

<svg xmlns="http://www.w3.org/2000/svg" width="16" height="16" viewBox="0 0 16 16">
 <defs>
  <style id="current-color-scheme" type="text/css">
   .ColorScheme-Text { color:#E6DDFF; } .ColorScheme-Highlight { color:#4285f4; }
  </style>
 </defs>
 <path style="fill:currentColor" class="ColorScheme-Text" d="M 3.0039062 1.0039062 L 3.0039062 2.5039062 L 1.0039062 2.5039062 L 1.0039062 4.5039062 L 3.0039062 4.5039062 L 3.0039062 6.0039062 L 7.0039062 6.0039062 L 7.0039062 4.5039062 L 9.0039062 4.5039062 L 9.0039062 6.0039062 L 13.003906 6.0039062 L 13.003906 4.5039062 L 15.003906 4.5039062 L 15.003906 2.5039062 L 13.003906 2.5039062 L 13.003906 1.0039062 L 9.0039062 1.0039062 L 9.0039062 2.5039062 L 7.0039062 2.5039062 L 7.0039062 1.0039062 L 3.0039062 1.0039062 z M 3.0039062 10.003906 L 3.0039062 11.503906 L 1.0039062 11.503906 L 1.0039062 13.503906 L 3.0039062 13.503906 L 3.0039062 15.003906 L 7.0039062 15.003906 L 7.0039062 13.503906 L 9.0039062 13.503906 L 9.0039062 15.003906 L 13.003906 15.003906 L 13.003906 13.503906 L 15.003906 13.503906 L 15.003906 11.503906 L 13.003906 11.503906 L 13.003906 10.003906 L 9.0039062 10.003906 L 9.0039062 11.503906 L 7.0039062 11.503906 L 7.0039062 10.003906 L 3.0039062 10.003906 z"/>
</svg>
